assets/img/slider-cards/task-2.svg

<svg width="60" height="60" viewBox="0 0 60 60" fill="none" xmlns="http://www.w3.org/2000/svg">
<path d="M52.7344 5.39062C47.7422 5.39062 42.1172 8.15625 36.0703 13.5703C31.8281 17.3672 28.1953 21.7031 25.6875 24.9844C23.584 24.3441 21.3599 24.2052 19.193 24.5787C17.0262 24.9522 14.977 25.8278 13.2093 27.1354C11.4415 28.443 10.0045 30.1462 9.01307 32.1088C8.02168 34.0713 7.50349 36.2387 7.49999 38.4375C7.49999 45.75 3.70312 49.0078 3.51562 49.1719C3.21027 49.4078 2.9886 49.7355 2.88315 50.1067C2.77769 50.4779 2.794 50.8731 2.92968 51.2344C3.04955 51.6051 3.28475 51.9279 3.60096 52.1556C3.91718 52.3832 4.29786 52.5039 4.68749 52.5H21.5625C23.7612 52.4965 25.9287 51.9783 27.8912 50.9869C29.8538 49.9955 31.557 48.5585 32.8646 46.7907C34.1722 45.023 35.0477 42.9737 35.4213 40.8069C35.7948 38.6401 35.6559 36.416 35.0156 34.3125C38.2969 31.8047 42.6328 28.1719 46.4297 23.9297C51.8437 17.8828 54.6094 12.2578 54.6094 7.26562C54.6094 6.76834 54.4118 6.29143 54.0602 5.9398C53.7086 5.58817 53.2316 5.39063 52.7344 5.39062ZM29.1562 26.625C29.8359 25.7578 30.6328 24.7734 31.5469 23.6953C33.4229 24.9619 35.0381 26.5771 36.3047 28.4531C35.2266 29.3672 34.2422 30.1641 33.375 30.8438C32.2901 29.1492 30.8508 27.7099 29.1562 26.625ZM39.1406 25.9453C37.7383 23.9803 36.0197 22.2617 34.0547 20.8594C38.6484 15.8906 44.8359 10.4531 50.6484 9.35156C49.5469 15.1641 44.1094 21.3516 39.1406 25.9453Z" fill="#00A0E3"/>
</svg>

<svg width="60" height="60" fill="none" xmlns="http://www.w3.org/2000/svg"><path d="M52.734 5.39c-4.992 0-10.617 2.766-16.664 8.18-4.242 3.797-7.875 8.133-10.383 11.414A14.086 14.086 0 007.5 38.437c0 7.313-3.797 10.57-3.984 10.735a1.804 1.804 0 00-.586 2.062A1.829 1.829 0 004.687 52.5h16.875a14.086 14.086 0 0013.454-18.188c3.28-2.507 7.617-6.14 11.414-10.382 5.414-6.047 8.18-11.672 8.18-16.664a1.875 1.875 0 00-1.876-1.875zM29.156 26.626a98.374 98.374 0 012.39-2.93 17.672 17.672 0 014.759 4.758 98.374 98.374 0 01-2.93 2.39 13.923 13.923 0 00-4.219-4.218zm9.985-.68a21.819 21.819 0 00-5.086-5.086c4.593-4.968 10.78-10.406 16.593-11.507-1.101 5.812-6.539 12-11.507 16.593z" fill="#00A0E3"/></svg>
